X:10469
T:L\"andler G (LD05067)
M:3/4
L:1/8
K:G %%MIDI gchordon
"G"DB DB DB | "D7"Bd cAF2 | DA DA DA | "G"Ac BGD2 | DB DB DB | "Am"Bd cAE2 | "C"Ec Ec "D7"FA | "G"G2z2z2 :: 
"D7"AB cB AG | FG AG FE | DE FE DC | "G"B,D GBd2 | "D7"AB cB AG | FG AG FE | DE FD EF | "G"G2z2z2 :| 

